icons/icn_descarga.svg

<svg width="24" xmlns="http://www.w3.org/2000/svg" height="24" id="screenshot-0ef66420-1100-8022-8006-9da4026db777" viewBox="0 0 24 24" xmlns:xlink="http://www.w3.org/1999/xlink" fill="none" version="1.1"><g id="shape-0ef66420-1100-8022-8006-9da4026db777"><g class="frame-container-wrapper"><g class="frame-container-blur"><g class="frame-container-shadows"><g fill="none"><g class="fills" id="fills-0ef66420-1100-8022-8006-9da4026db777"><rect rx="0" ry="0" x="0" y="0" width="24" height="24.000000000000455" transform="matrix(1, 0, 0, 1, 0, 0)" class="frame-background"/></g><g class="frame-children"><g id="shape-0ef66420-1100-8022-8006-9da1a13f28d2" rx="0" ry="0"><g id="shape-0ef66420-1100-8022-8006-9da0ce7e2da2" style="opacity: 1;"><g class="fills" id="fills-0ef66420-1100-8022-8006-9da0ce7e2da2"><path d="M11.714648246765137,3.130615234375C11.483202934265137,3.1297607421875,11.260790824890137,3.2210693359375,11.097460746765137,3.3848876953125C10.934130668640137,3.5482177734375,10.842822074890137,3.7706298828125,10.843798637390137,4.002197265625L10.843798637390137,12.904296875L7.611376762390137,9.6719970703125C7.449023246765137,9.509033203125,7.228320121765137,9.417724609375,6.997607231140137,9.417724609375C6.767870903015137,9.417724609375,6.547411918640137,9.509033203125,6.385058403015137,9.6719970703125C6.047411918640137,10.0101318359375,6.047411918640137,10.5582275390625,6.385058403015137,10.8963623046875L11.032763481140137,15.545166015625L11.102099418640137,15.6134033203125C11.118700981140137,15.627685546875,11.136279106140137,15.6416015625,11.154589653015137,15.654541015625C11.193408012390137,15.69091796875,11.235888481140137,15.7237548828125,11.281054496765137,15.7523193359375C11.394579887390137,15.8145751953125,11.519091606140137,15.8515625,11.648241996765137,15.859375C11.679736137390137,15.862548828125,11.710986137390137,15.863525390625,11.742480278015137,15.863037109375C11.791308403015137,15.8612060546875,11.840136528015137,15.854736328125,11.889208793640137,15.8441162109375C11.929736137390137,15.8358154296875,11.970263481140137,15.82470703125,12.010058403015137,15.8104248046875C12.048876762390137,15.7974853515625,12.086718559265137,15.7818603515625,12.123583793640137,15.763427734375C12.198290824890137,15.72412109375,12.267382621765137,15.67431640625,12.328417778015137,15.6148681640625L17.045459747314453,10.8983154296875C17.383106231689453,10.5595703125,17.383106231689453,10.011962890625,17.045459747314453,9.67333984375C16.882129669189453,9.509033203125,16.660694122314453,9.4163818359375,16.429004669189453,9.4163818359375C16.197315216064453,9.4163818359375,15.975146293640137,9.509033203125,15.812548637390137,9.67333984375L12.578417778015137,12.91357421875L12.578417778015137,4.0035400390625C12.579394340515137,3.7733154296875,12.488818168640137,3.5523681640625,12.327441215515137,3.3890380859375C12.165087699890137,3.2257080078125,11.944628715515137,3.1334228515625,11.714648246765137,3.132568359375ZM2.834277391433716,11.0528564453125C2.358203172683716,11.0546875,1.9724609851837158,11.43994140625,1.9707520008087158,11.916015625C1.9707520008087158,17.4007568359375,6.429247856140137,21.8673095703125,11.914111137390137,21.8673095703125C17.398731231689453,21.8673095703125,21.864795684814453,17.4007568359375,21.864795684814453,11.916015625C21.863086700439453,11.43994140625,21.478321075439453,11.0546875,21.002002716064453,11.0528564453125C20.772266387939453,11.0513916015625,20.550830841064453,11.141845703125,20.387500762939453,11.3038330078125C20.224170684814453,11.4656982421875,20.131885528564453,11.685791015625,20.131153106689453,11.916015625C20.131153106689453,16.4637451171875,16.462207794189453,20.133056640625,11.914111137390137,20.133056640625C7.366015434265137,20.133056640625,3.699023485183716,16.4637451171875,3.699023485183716,11.916015625C3.697070360183716,11.439453125,3.310595750808716,11.0537109375,2.834277391433716,11.0528564453125Z" style="display: inline; stroke-linecap: round; stroke-linejoin: round; fill: rgb(0, 0, 0); fill-opacity: 1;"/></g></g></g></g></g></g></g></g></g></svg>

<svg fill="none" viewBox="0 0 24 24"><g class="frame-container-wrapper"><g class="frame-container-blur"><g class="frame-container-shadows"><g class="fills"><rect width="24" height="24" class="frame-background" rx="0" ry="0"/></g><g class="frame-children"><path fill="#000" d="M11.7146 3.1306a.8669.8669 0 0 0-.8708.8716v8.9021L7.6114 9.672a.8657.8657 0 0 0-.6138-.2543.8666.8666 0 0 0-.6125 1.4786l4.6477 4.6489.0693.0682a.7026.7026 0 0 0 .0525.0411.8483.8483 0 0 0 .1265.0978.8715.8715 0 0 0 .3671.107.8109.8109 0 0 0 .0943.0037.8416.8416 0 0 0 .1467-.0189.8816.8816 0 0 0 .1209-.0337.8654.8654 0 0 0 .1135-.047.8817.8817 0 0 0 .2048-.1485l4.717-4.7166a.8673.8673 0 0 0 0-1.225.8676.8676 0 0 0-1.233 0l-3.234 3.2403v-8.91a.8693.8693 0 0 0-.251-.6146.8688.8688 0 0 0-.6128-.2564ZM2.8343 11.053c-.4761.0018-.8618.387-.8635.8631 0 5.4848 4.4584 9.9513 9.9433 9.9513 5.4846 0 9.9507-4.4665 9.9507-9.9513a.8658.8658 0 0 0-.8628-.8631.8655.8655 0 0 0-.6145.251.8655.8655 0 0 0-.2563.6121c0 4.5477-3.669 8.217-8.217 8.217-4.5482 0-8.2152-3.6693-8.2152-8.217-.002-.4765-.3884-.8623-.8647-.8631Z" class="fills"/></g></g></g></g></svg>
